Newaita-dark/apps/64/nextcloud.svg

<svg height="64" viewBox="0 0 64 64" width="64" xmlns="http://www.w3.org/2000/svg" xmlns:xlink="http://www.w3.org/1999/xlink"><linearGradient id="a" gradientUnits="userSpaceOnUse" x1="31.75304" x2="31.75304" y1="56.067872" y2="58.71396000006"><stop offset="0" stop-opacity=".27451"/><stop offset="1" stop-opacity="0"/></linearGradient><linearGradient id="b"><stop offset="0" stop-opacity=".313726"/><stop offset=".222222" stop-opacity=".27451"/><stop offset="1" stop-opacity="0"/></linearGradient><radialGradient id="c" cx="450.908936" cy="189.579361" gradientTransform="matrix(.00000035 -.156265 -.281277 -.0000002 104.261296 127.190665)" gradientUnits="userSpaceOnUse" r="21.166656" xlink:href="#b"/><radialGradient id="d" cx="450.908936" cy="189.579361" gradientTransform="matrix(-.00000035 .156265 .281277 .0000002 -40.755227 -15.054958)" gradientUnits="userSpaceOnUse" r="21.166656" xlink:href="#b"/><radialGradient id="e" cx="450.908936" cy="189.579361" gradientTransform="matrix(-.00000035 -.156265 .281277 -.0000002 -40.755227 127.190665)" gradientUnits="userSpaceOnUse" r="21.166656" xlink:href="#b"/><radialGradient id="f" cx="450.908936" cy="189.579361" gradientTransform="matrix(.00000035 .156265 -.281277 .0000002 104.261293 -15.054959)" gradientUnits="userSpaceOnUse" r="21.166656" xlink:href="#b"/><linearGradient id="g" gradientUnits="userSpaceOnUse" x1="21.16869799994" x2="21.16869799994" y1="56.067868" y2="5.79221000013"><stop offset="0" stop-color="#2979ff"/><stop offset="1" stop-color="#448aff"/></linearGradient><linearGradient id="h" gradientUnits="userSpaceOnUse" x1="31.75305398236" x2="31.753056" y1="56.06789790428" y2="5.792224912"><stop offset="0" stop-color="#e0e0e0"/><stop offset="1" stop-color="#eee"/></linearGradient><path d="m11.90625 55.871094h39.691406v2.941406h-39.691406zm0 0" fill="url(#a)"/><path d="m51.597656 56.066406h5.292969v-2.644531h-5.292969zm0 0" fill="url(#c)"/><path d="m11.90625 56.066406h-5.292969v2.648438h5.292969zm0 0" fill="url(#d)"/><path d="m11.90625 56.066406h-5.292969v-2.644531h5.292969zm0 0" fill="url(#e)"/><path d="m51.597656 56.066406h5.292969v2.648438h-5.292969zm0 0" fill="url(#f)"/><path d="m9.261719 5.792969h44.984375c1.460937 0 2.644531 1.183593 2.644531 2.644531v44.984375c0 1.460937-1.183594 2.644531-2.644531 2.644531h-44.984375c-1.460938 0-2.648438-1.183594-2.648438-2.644531v-44.984375c0-1.460938 1.1875-2.644531 2.648438-2.644531zm0 0" fill="url(#g)"/><path d="m9.261719 5.792969c-1.464844 0-2.648438 1.179687-2.648438 2.644531v.332031c0-1.464843 1.183594-2.648437 2.648438-2.648437h44.984375c1.464844 0 2.644531 1.183594 2.644531 2.648437v-.332031c0-1.464844-1.179687-2.644531-2.644531-2.644531zm0 0" fill="#e6e6e6" fill-opacity=".392157"/><path d="m9.261719 56.066406c-1.464844 0-2.648438-1.179687-2.648438-2.644531v-.332031c0 1.46875 1.183594 2.648437 2.648438 2.648437h44.984375c1.464844 0 2.644531-1.179687 2.644531-2.648437v.332031c0 1.464844-1.179687 2.644531-2.644531 2.644531zm0 0" fill-opacity=".196078"/><path d="m74.086675-168.660675h359.840637c11.686384 0 21.15423 9.467846 21.15423 21.15423v359.840637c0 11.686384-9.467846 21.154229-21.15423 21.154229h-359.840637c-11.686384 0-21.185477-9.467845-21.185477-21.154229v-359.840637c0-11.686384 9.499093-21.15423 21.185477-21.15423zm0 0" fill="none" stroke="#212121" stroke-linecap="round" stroke-width="3" transform="matrix(.125012 0 0 .125012 0 26.877566)"/><path d="m31.753906 22.992188c-3.402344 0-6.292968 2.121093-7.425781 5.117187-.933594-1.488281-2.589844-2.472656-4.484375-2.472656-2.929688 0-5.289062 2.363281-5.289062 5.292969 0 2.933593 2.359374 5.292968 5.289062 5.292968 1.894531 0 3.550781-.984375 4.484375-2.472656 1.132813 3 4.023437 5.117188 7.425781 5.117188s6.289063-2.117188 7.425782-5.117188c.933593 1.488281 2.585937 2.472656 4.480468 2.472656 2.933594 0 5.292969-2.359375 5.292969-5.292968 0-2.929688-2.359375-5.292969-5.292969-5.292969-1.894531 0-3.546875.984375-4.480468 2.472656-1.136719-2.996094-4.023438-5.117187-7.425782-5.117187zm0 3.96875c2.199219 0 3.96875 1.769531 3.96875 3.96875 0 2.199218-1.769531 3.96875-3.96875 3.96875-2.199218 0-3.96875-1.769532-3.96875-3.96875 0-2.199219 1.769532-3.96875 3.96875-3.96875zm-11.910156 2.644531c.734375 0 1.324219.589843 1.324219 1.324219 0 .734374-.589844 1.324218-1.324219 1.324218-.730469 0-1.320312-.589844-1.320312-1.324218 0-.734376.589843-1.324219 1.320312-1.324219zm23.816406 0c.734375 0 1.324219.589843 1.324219 1.324219 0 .734374-.589844 1.324218-1.324219 1.324218s-1.324218-.589844-1.324218-1.324218c0-.734376.589843-1.324219 1.324218-1.324219zm0 0" fill="url(#h)"/><path d="m31.753906 22.992188c-3.402344 0-6.292968 2.121093-7.425781 5.117187-.933594-1.488281-2.589844-2.472656-4.484375-2.472656-2.929688 0-5.289062 2.363281-5.289062 5.292969 0 .113281.003906.222656.007812.332031.171875-2.777344 2.460938-4.960938 5.28125-4.960938 1.894531 0 3.550781.984375 4.484375 2.46875 1.132813-2.996093 4.023437-5.117187 7.425781-5.117187s6.289063 2.121094 7.425782 5.117187c.933593-1.484375 2.585937-2.46875 4.480468-2.46875 2.820313 0 5.113282 2.183594 5.28125 4.960938.007813-.109375.011719-.21875.011719-.332031 0-2.929688-2.359375-5.292969-5.292969-5.292969-1.894531 0-3.546875.984375-4.480468 2.472656-1.136719-2.996094-4.023438-5.117187-7.425782-5.117187zm-13.191406 8.269531c-.027344.105469-.039062.214843-.039062.328125 0 .734375.589843 1.324218 1.320312 1.324218.734375 0 1.324219-.589843 1.324219-1.324218 0-.113282-.015625-.222656-.039063-.328125-.148437.570312-.664062.992187-1.285156.992187-.617188 0-1.132812-.421875-1.28125-.992187zm9.234375 0c-.007813.109375-.011719.21875-.011719.328125 0 2.199218 1.769532 3.972656 3.96875 3.972656 2.199219 0 3.96875-1.773438 3.96875-3.972656 0-.109375-.003906-.21875-.015625-.328125-.164062 2.042969-1.867187 3.636719-3.953125 3.636719-2.089844 0-3.789062-1.59375-3.957031-3.636719zm14.582031 0c-.027344.105469-.042968.214843-.042968.328125 0 .734375.589843 1.324218 1.324218 1.324218s1.324219-.589843 1.324219-1.324218c0-.113282-.015625-.222656-.042969-.328125-.144531.570312-.664062.992187-1.28125.992187-.617187 0-1.136718-.421875-1.28125-.992187zm0 0" fill="#fff" fill-opacity=".987097"/><path d="m31.753906 26.949219c-2.199218 0-3.96875 1.773437-3.96875 3.96875 0 .140625.007813.277343.019532.414062.207031-2.003906 1.890624-3.554687 3.949218-3.554687s3.742188 1.550781 3.945313 3.554687c.015625-.136719.023437-.273437.023437-.414062 0-2.195313-1.769531-3.96875-3.96875-3.96875zm-11.910156 2.648437c-.730469 0-1.320312.589844-1.320312 1.320313 0 .144531.023437.285156.066406.414062.171875-.527343.667968-.910156 1.253906-.910156.589844 0 1.085938.382813 1.257812.910156.042969-.128906.066407-.269531.066407-.414062 0-.730469-.589844-1.320313-1.324219-1.320313zm23.816406 0c-.734375 0-1.324218.589844-1.324218 1.320313 0 .144531.023437.285156.066406.414062.171875-.527343.667968-.910156 1.257812-.910156s1.085938.382813 1.257813.910156c.042969-.128906.066406-.269531.066406-.414062 0-.730469-.589844-1.320313-1.324219-1.320313zm-29.089844 1.734375c-.011718.136719-.015624.273438-.015624.414063 0 2.933594 2.359374 5.292968 5.289062 5.292968 1.894531 0 3.550781-.984374 4.484375-2.46875 1.132813 2.996094 4.023437 5.113282 7.425781 5.113282s6.289063-2.117188 7.425782-5.113282c.933593 1.484376 2.585937 2.46875 4.480468 2.46875 2.933594 0 5.292969-2.359374 5.292969-5.292968 0-.140625-.007813-.277344-.015625-.414063-.210938 2.738281-2.484375 4.878907-5.277344 4.878907-1.894531 0-3.546875-.984376-4.480468-2.46875-1.136719 2.996093-4.023438 5.117187-7.425782 5.117187s-6.292968-2.121094-7.425781-5.117187c-.933594 1.484374-2.589844 2.46875-4.484375 2.46875-2.789062 0-5.066406-2.140626-5.273438-4.878907zm0 0" fill-opacity=".235294"/><path d="m960.026483 695.130505c-102.864198 0-190.257432 64.127738-224.506132 154.709644-28.225652-44.995706-78.299613-74.756645-135.577611-74.756645-88.574224 0-159.905998 71.449874-159.905998 160.024097 0 88.692323 71.331774 160.024097 159.905998 160.024097 57.277998 0 107.351959-29.760939 135.577611-74.756644 34.2487 90.700004 121.641934 154.709643 224.506132 154.709643s190.139333-64.009639 224.506131-154.709643c28.225653 44.995705 78.181515 74.756644 135.459513 74.756644 88.692322 0 160.024097-71.331774 160.024097-160.024097 0-88.574223-71.331775-160.024097-160.024097-160.024097-57.277998 0-107.23386 29.760939-135.459513 74.756645-34.366798-90.581906-121.641933-154.709644-224.506131-154.709644zm0 119.988548c66.489717 0 119.988548 53.498831 119.988548 119.988548s-53.498831 119.988548-119.988548 119.988548-119.988548-53.498831-119.988548-119.988548 53.498831-119.988548 119.988548-119.988548zm-360.083743 79.952999c22.202605 0 40.035549 17.832944 40.035549 40.035549 0 22.202606-17.832944 40.035549-40.035549 40.035549-22.084507 0-39.91745-17.832943-39.91745-40.035549 0-22.202605 17.832943-40.035549 39.91745-40.035549zm720.049387 0c22.202605 0 40.035549 17.832944 40.035549 40.035549 0 22.202606-17.832944 40.035549-40.035549 40.035549-22.202606 0-40.035549-17.832943-40.035549-40.035549 0-22.202605 17.832943-40.035549 40.035549-40.035549zm0 0" fill="none" stroke="#212121" stroke-linecap="round" stroke-linejoin="round" stroke-width="11.338583" transform="scale(.0330761)"/></svg>

<?xml version="1.0" encoding="UTF-8"?>
<svg xmlns="http://www.w3.org/2000/svg" xmlns:xlink="http://www.w3.org/1999/xlink" width="64px" height="64px" viewBox="0 0 64 64" version="1.1">
<defs>
<linearGradient id="linear0" gradientUnits="userSpaceOnUse" x1="254" y1="233.5" x2="254" y2="254.666672" gradientTransform="matrix(0.125012,0,0,0.125012,-0.00000763012,26.87757)">
<stop offset="0" style="stop-color:rgb(0%,0%,0%);stop-opacity:0.27451;"/>
<stop offset="1" style="stop-color:rgb(0%,0%,0%);stop-opacity:0;"/>
</linearGradient>
<radialGradient id="radial0" gradientUnits="userSpaceOnUse" cx="450.908936" cy="189.579361" fx="450.908936" fy="189.579361" r="21.166656" gradientTransform="matrix(0.000000348341,-0.156265,-0.281277,-0.000000203077,104.261296,127.190665)">
<stop offset="0" style="stop-color:rgb(0%,0%,0%);stop-opacity:0.313726;"/>
<stop offset="0.222222" style="stop-color:rgb(0%,0%,0%);stop-opacity:0.27451;"/>
<stop offset="1" style="stop-color:rgb(0%,0%,0%);stop-opacity:0;"/>
</radialGradient>
<radialGradient id="radial1" gradientUnits="userSpaceOnUse" cx="450.908936" cy="189.579361" fx="450.908936" fy="189.579361" r="21.166656" gradientTransform="matrix(-0.000000348341,0.156265,0.281277,0.000000203077,-40.755227,-15.054958)">
<stop offset="0" style="stop-color:rgb(0%,0%,0%);stop-opacity:0.313726;"/>
<stop offset="0.222222" style="stop-color:rgb(0%,0%,0%);stop-opacity:0.27451;"/>
<stop offset="1" style="stop-color:rgb(0%,0%,0%);stop-opacity:0;"/>
</radialGradient>
<radialGradient id="radial2" gradientUnits="userSpaceOnUse" cx="450.908936" cy="189.579361" fx="450.908936" fy="189.579361" r="21.166656" gradientTransform="matrix(-0.000000348341,-0.156265,0.281277,-0.000000203077,-40.755227,127.190665)">
<stop offset="0" style="stop-color:rgb(0%,0%,0%);stop-opacity:0.313726;"/>
<stop offset="0.222222" style="stop-color:rgb(0%,0%,0%);stop-opacity:0.27451;"/>
<stop offset="1" style="stop-color:rgb(0%,0%,0%);stop-opacity:0;"/>
</radialGradient>
<radialGradient id="radial3" gradientUnits="userSpaceOnUse" cx="450.908936" cy="189.579361" fx="450.908936" fy="189.579361" r="21.166656" gradientTransform="matrix(0.000000348341,0.156265,-0.281277,0.000000203077,104.261293,-15.054959)">
<stop offset="0" style="stop-color:rgb(0%,0%,0%);stop-opacity:0.313726;"/>
<stop offset="0.222222" style="stop-color:rgb(0%,0%,0%);stop-opacity:0.27451;"/>
<stop offset="1" style="stop-color:rgb(0%,0%,0%);stop-opacity:0;"/>
</radialGradient>
<linearGradient id="linear1" gradientUnits="userSpaceOnUse" x1="169.333328" y1="233.5" x2="169.333328" y2="-168.666656" gradientTransform="matrix(0.125012,0,0,0.125012,0,26.877566)">
<stop offset="0" style="stop-color:rgb(16.078432%,47.450981%,100%);stop-opacity:1;"/>
<stop offset="1" style="stop-color:rgb(26.666668%,54.11765%,100%);stop-opacity:1;"/>
</linearGradient>
<linearGradient id="linear2" gradientUnits="userSpaceOnUse" x1="959.999939" y1="1695.118164" x2="960" y2="175.118134" gradientTransform="matrix(0.0330761,0,0,0.0330761,0,0)">
<stop offset="0" style="stop-color:rgb(87.843138%,87.843138%,87.843138%);stop-opacity:1;"/>
<stop offset="1" style="stop-color:rgb(93.333334%,93.333334%,93.333334%);stop-opacity:1;"/>
</linearGradient>
</defs>
<g id="surface1">
<path style=" stroke:none;fill-rule:nonzero;fill:url(#linear0);" d="M 11.90625 55.871094 L 51.597656 55.871094 L 51.597656 58.8125 L 11.90625 58.8125 Z M 11.90625 55.871094 "/>
<path style=" stroke:none;fill-rule:nonzero;fill:url(#radial0);" d="M 51.597656 56.066406 L 56.890625 56.066406 L 56.890625 53.421875 L 51.597656 53.421875 Z M 51.597656 56.066406 "/>
<path style=" stroke:none;fill-rule:nonzero;fill:url(#radial1);" d="M 11.90625 56.066406 L 6.613281 56.066406 L 6.613281 58.714844 L 11.90625 58.714844 Z M 11.90625 56.066406 "/>
<path style=" stroke:none;fill-rule:nonzero;fill:url(#radial2);" d="M 11.90625 56.066406 L 6.613281 56.066406 L 6.613281 53.421875 L 11.90625 53.421875 Z M 11.90625 56.066406 "/>
<path style=" stroke:none;fill-rule:nonzero;fill:url(#radial3);" d="M 51.597656 56.066406 L 56.890625 56.066406 L 56.890625 58.714844 L 51.597656 58.714844 Z M 51.597656 56.066406 "/>
<path style=" stroke:none;fill-rule:nonzero;fill:url(#linear1);" d="M 9.261719 5.792969 L 54.246094 5.792969 C 55.707031 5.792969 56.890625 6.976562 56.890625 8.4375 L 56.890625 53.421875 C 56.890625 54.882812 55.707031 56.066406 54.246094 56.066406 L 9.261719 56.066406 C 7.800781 56.066406 6.613281 54.882812 6.613281 53.421875 L 6.613281 8.4375 C 6.613281 6.976562 7.800781 5.792969 9.261719 5.792969 Z M 9.261719 5.792969 "/>
<path style=" stroke:none;fill-rule:nonzero;fill:rgb(90.196079%,90.196079%,90.196079%);fill-opacity:0.392157;" d="M 9.261719 5.792969 C 7.796875 5.792969 6.613281 6.972656 6.613281 8.4375 L 6.613281 8.769531 C 6.613281 7.304688 7.796875 6.121094 9.261719 6.121094 L 54.246094 6.121094 C 55.710938 6.121094 56.890625 7.304688 56.890625 8.769531 L 56.890625 8.4375 C 56.890625 6.972656 55.710938 5.792969 54.246094 5.792969 Z M 9.261719 5.792969 "/>
<path style=" stroke:none;fill-rule:nonzero;fill:rgb(0%,0%,0%);fill-opacity:0.196078;" d="M 9.261719 56.066406 C 7.796875 56.066406 6.613281 54.886719 6.613281 53.421875 L 6.613281 53.089844 C 6.613281 54.558594 7.796875 55.738281 9.261719 55.738281 L 54.246094 55.738281 C 55.710938 55.738281 56.890625 54.558594 56.890625 53.089844 L 56.890625 53.421875 C 56.890625 54.886719 55.710938 56.066406 54.246094 56.066406 Z M 9.261719 56.066406 "/>
<path style="fill:none;stroke-width:3;stroke-linecap:round;stroke-linejoin:miter;stroke:rgb(12.941177%,12.941177%,12.941177%);stroke-opacity:1;stroke-miterlimit:4;" d="M 74.086675 -168.660675 L 433.927312 -168.660675 C 445.613696 -168.660675 455.081542 -159.192829 455.081542 -147.506445 L 455.081542 212.334192 C 455.081542 224.020576 445.613696 233.488421 433.927312 233.488421 L 74.086675 233.488421 C 62.400291 233.488421 52.901198 224.020576 52.901198 212.334192 L 52.901198 -147.506445 C 52.901198 -159.192829 62.400291 -168.660675 74.086675 -168.660675 Z M 74.086675 -168.660675 " transform="matrix(0.125012,0,0,0.125012,0,26.877566)"/>
<path style=" stroke:none;fill-rule:nonzero;fill:url(#linear2);" d="M 31.753906 22.992188 C 28.351562 22.992188 25.460938 25.113281 24.328125 28.109375 C 23.394531 26.621094 21.738281 25.636719 19.84375 25.636719 C 16.914062 25.636719 14.554688 28 14.554688 30.929688 C 14.554688 33.863281 16.914062 36.222656 19.84375 36.222656 C 21.738281 36.222656 23.394531 35.238281 24.328125 33.75 C 25.460938 36.75 28.351562 38.867188 31.753906 38.867188 C 35.15625 38.867188 38.042969 36.75 39.179688 33.75 C 40.113281 35.238281 41.765625 36.222656 43.660156 36.222656 C 46.59375 36.222656 48.953125 33.863281 48.953125 30.929688 C 48.953125 28 46.59375 25.636719 43.660156 25.636719 C 41.765625 25.636719 40.113281 26.621094 39.179688 28.109375 C 38.042969 25.113281 35.15625 22.992188 31.753906 22.992188 Z M 31.753906 26.960938 C 33.953125 26.960938 35.722656 28.730469 35.722656 30.929688 C 35.722656 33.128906 33.953125 34.898438 31.753906 34.898438 C 29.554688 34.898438 27.785156 33.128906 27.785156 30.929688 C 27.785156 28.730469 29.554688 26.960938 31.753906 26.960938 Z M 19.84375 29.605469 C 20.578125 29.605469 21.167969 30.195312 21.167969 30.929688 C 21.167969 31.664062 20.578125 32.253906 19.84375 32.253906 C 19.113281 32.253906 18.523438 31.664062 18.523438 30.929688 C 18.523438 30.195312 19.113281 29.605469 19.84375 29.605469 Z M 43.660156 29.605469 C 44.394531 29.605469 44.984375 30.195312 44.984375 30.929688 C 44.984375 31.664062 44.394531 32.253906 43.660156 32.253906 C 42.925781 32.253906 42.335938 31.664062 42.335938 30.929688 C 42.335938 30.195312 42.925781 29.605469 43.660156 29.605469 Z M 43.660156 29.605469 "/>
<path style=" stroke:none;fill-rule:nonzero;fill:rgb(100%,100%,100%);fill-opacity:0.987097;" d="M 31.753906 22.992188 C 28.351562 22.992188 25.460938 25.113281 24.328125 28.109375 C 23.394531 26.621094 21.738281 25.636719 19.84375 25.636719 C 16.914062 25.636719 14.554688 28 14.554688 30.929688 C 14.554688 31.042969 14.558594 31.152344 14.5625 31.261719 C 14.734375 28.484375 17.023438 26.300781 19.84375 26.300781 C 21.738281 26.300781 23.394531 27.285156 24.328125 28.769531 C 25.460938 25.773438 28.351562 23.652344 31.753906 23.652344 C 35.15625 23.652344 38.042969 25.773438 39.179688 28.769531 C 40.113281 27.285156 41.765625 26.300781 43.660156 26.300781 C 46.480469 26.300781 48.773438 28.484375 48.941406 31.261719 C 48.949219 31.152344 48.953125 31.042969 48.953125 30.929688 C 48.953125 28 46.59375 25.636719 43.660156 25.636719 C 41.765625 25.636719 40.113281 26.621094 39.179688 28.109375 C 38.042969 25.113281 35.15625 22.992188 31.753906 22.992188 Z M 18.5625 31.261719 C 18.535156 31.367188 18.523438 31.476562 18.523438 31.589844 C 18.523438 32.324219 19.113281 32.914062 19.84375 32.914062 C 20.578125 32.914062 21.167969 32.324219 21.167969 31.589844 C 21.167969 31.476562 21.152344 31.367188 21.128906 31.261719 C 20.980469 31.832031 20.464844 32.253906 19.84375 32.253906 C 19.226562 32.253906 18.710938 31.832031 18.5625 31.261719 Z M 27.796875 31.261719 C 27.789062 31.371094 27.785156 31.480469 27.785156 31.589844 C 27.785156 33.789062 29.554688 35.5625 31.753906 35.5625 C 33.953125 35.5625 35.722656 33.789062 35.722656 31.589844 C 35.722656 31.480469 35.71875 31.371094 35.707031 31.261719 C 35.542969 33.304688 33.839844 34.898438 31.753906 34.898438 C 29.664062 34.898438 27.964844 33.304688 27.796875 31.261719 Z M 42.378906 31.261719 C 42.351562 31.367188 42.335938 31.476562 42.335938 31.589844 C 42.335938 32.324219 42.925781 32.914062 43.660156 32.914062 C 44.394531 32.914062 44.984375 32.324219 44.984375 31.589844 C 44.984375 31.476562 44.96875 31.367188 44.941406 31.261719 C 44.796875 31.832031 44.277344 32.253906 43.660156 32.253906 C 43.042969 32.253906 42.523438 31.832031 42.378906 31.261719 Z M 42.378906 31.261719 "/>
<path style=" stroke:none;fill-rule:nonzero;fill:rgb(0%,0%,0%);fill-opacity:0.235294;" d="M 31.753906 26.949219 C 29.554688 26.949219 27.785156 28.722656 27.785156 30.917969 C 27.785156 31.058594 27.792969 31.195312 27.804688 31.332031 C 28.011719 29.328125 29.695312 27.777344 31.753906 27.777344 C 33.8125 27.777344 35.496094 29.328125 35.699219 31.332031 C 35.714844 31.195312 35.722656 31.058594 35.722656 30.917969 C 35.722656 28.722656 33.953125 26.949219 31.753906 26.949219 Z M 19.84375 29.597656 C 19.113281 29.597656 18.523438 30.1875 18.523438 30.917969 C 18.523438 31.0625 18.546875 31.203125 18.589844 31.332031 C 18.761719 30.804688 19.257812 30.421875 19.84375 30.421875 C 20.433594 30.421875 20.929688 30.804688 21.101562 31.332031 C 21.144531 31.203125 21.167969 31.0625 21.167969 30.917969 C 21.167969 30.1875 20.578125 29.597656 19.84375 29.597656 Z M 43.660156 29.597656 C 42.925781 29.597656 42.335938 30.1875 42.335938 30.917969 C 42.335938 31.0625 42.359375 31.203125 42.402344 31.332031 C 42.574219 30.804688 43.070312 30.421875 43.660156 30.421875 C 44.25 30.421875 44.746094 30.804688 44.917969 31.332031 C 44.960938 31.203125 44.984375 31.0625 44.984375 30.917969 C 44.984375 30.1875 44.394531 29.597656 43.660156 29.597656 Z M 14.570312 31.332031 C 14.558594 31.46875 14.554688 31.605469 14.554688 31.746094 C 14.554688 34.679688 16.914062 37.039062 19.84375 37.039062 C 21.738281 37.039062 23.394531 36.054688 24.328125 34.570312 C 25.460938 37.566406 28.351562 39.683594 31.753906 39.683594 C 35.15625 39.683594 38.042969 37.566406 39.179688 34.570312 C 40.113281 36.054688 41.765625 37.039062 43.660156 37.039062 C 46.59375 37.039062 48.953125 34.679688 48.953125 31.746094 C 48.953125 31.605469 48.945312 31.46875 48.9375 31.332031 C 48.726562 34.070312 46.453125 36.210938 43.660156 36.210938 C 41.765625 36.210938 40.113281 35.226562 39.179688 33.742188 C 38.042969 36.738281 35.15625 38.859375 31.753906 38.859375 C 28.351562 38.859375 25.460938 36.738281 24.328125 33.742188 C 23.394531 35.226562 21.738281 36.210938 19.84375 36.210938 C 17.054688 36.210938 14.777344 34.070312 14.570312 31.332031 Z M 14.570312 31.332031 "/>
<path style="fill:none;stroke-width:11.338583;stroke-linecap:round;stroke-linejoin:round;stroke:rgb(12.941177%,12.941177%,12.941177%);stroke-opacity:1;stroke-miterlimit:4;" d="M 960.026483 695.130505 C 857.162285 695.130505 769.769051 759.258243 735.520351 849.840149 C 707.294699 804.844443 657.220738 775.083504 599.94274 775.083504 C 511.368516 775.083504 440.036742 846.533378 440.036742 935.107601 C 440.036742 1023.799924 511.368516 1095.131698 599.94274 1095.131698 C 657.220738 1095.131698 707.294699 1065.370759 735.520351 1020.375054 C 769.769051 1111.075058 857.162285 1175.084697 960.026483 1175.084697 C 1062.890681 1175.084697 1150.165816 1111.075058 1184.532614 1020.375054 C 1212.758267 1065.370759 1262.714129 1095.131698 1319.992127 1095.131698 C 1408.684449 1095.131698 1480.016224 1023.799924 1480.016224 935.107601 C 1480.016224 846.533378 1408.684449 775.083504 1319.992127 775.083504 C 1262.714129 775.083504 1212.758267 804.844443 1184.532614 849.840149 C 1150.165816 759.258243 1062.890681 695.130505 960.026483 695.130505 Z M 960.026483 815.119053 C 1026.5162 815.119053 1080.015031 868.617884 1080.015031 935.107601 C 1080.015031 1001.597318 1026.5162 1055.096149 960.026483 1055.096149 C 893.536766 1055.096149 840.037935 1001.597318 840.037935 935.107601 C 840.037935 868.617884 893.536766 815.119053 960.026483 815.119053 Z M 599.94274 895.072052 C 622.145345 895.072052 639.978289 912.904996 639.978289 935.107601 C 639.978289 957.310207 622.145345 975.14315 599.94274 975.14315 C 577.858233 975.14315 560.02529 957.310207 560.02529 935.107601 C 560.02529 912.904996 577.858233 895.072052 599.94274 895.072052 Z M 1319.992127 895.072052 C 1342.194732 895.072052 1360.027676 912.904996 1360.027676 935.107601 C 1360.027676 957.310207 1342.194732 975.14315 1319.992127 975.14315 C 1297.789521 975.14315 1279.956578 957.310207 1279.956578 935.107601 C 1279.956578 912.904996 1297.789521 895.072052 1319.992127 895.072052 Z M 1319.992127 895.072052 " transform="matrix(0.0330761,0,0,0.0330761,0,0)"/>
</g>
</svg>
